X: 1
T: Duke Of Perth, The
M: 4/4
L: 1/8
R: reel
K: Gmaj
|:GABc d2B2|g2B2 d2B2|g2B2 d2B2|a2A2 AcBA|
GABc d2B2|g2B2 d2B2|c2A2 d3c|1B2G2 G2B2:|2B2G2 G2f2||
|:g3a g2e2|a3b a2f2|g3a g2e2|b2e2 e2f2|
g3a g2e2|a3b a2f2|g2d2 e2dc|1B2G2 G2f2:|2B2G2 G2B2||
